X: 1
T: Macleod's Farewell
C: Donald Shaw
R: reel
M: 4/4
L: 1/8
K: Dmaj
DE|F2BF AFEF|D2DE FABd|e2fd efdB|ABde dBAG|
F2BF AFEF|D2DE FABd|e2fd efdB|ABde d2:|
B|A2Af edfd|A2Af edfd|ABdA BdAB|dBAF EFDE|
F2BF AFEF|D2DE FABd|e2fd efdB|ABde d2:|

